local/share/icons/dracula-icons-main/scalable/apps/login.svg

<?xml version="1.0" encoding="UTF-8"?>
<svg xmlns="http://www.w3.org/2000/svg" xmlns:xlink="http://www.w3.org/1999/xlink" width="64" height="64" viewBox="0 0 64 64">
<defs>
<filter id="filter-remove-color" x="0%" y="0%" width="100%" height="100%">
<feColorMatrix color-interpolation-filters="sRGB" values="0 0 0 0 1 0 0 0 0 1 0 0 0 0 1 0 0 0 1 0" />
</filter>
<mask id="mask-0">
<g filter="url(#filter-remove-color)">
<rect x="-6.4" y="-6.4" width="76.8" height="76.8" fill="rgb(0%, 0%, 0%)" fill-opacity="0.15"/>
</g>
</mask>
<clipPath id="clip-0">
<rect x="0" y="0" width="17" height="17"/>
</clipPath>
<g id="source-14900" clip-path="url(#clip-0)">
<path fill-rule="nonzero" fill="rgb(0%, 0%, 0%)" fill-opacity="1" d="M 8.46875 3.175781 C 7.539062 3.175781 6.625 3.421875 5.824219 3.886719 L 4.878906 3.886719 C 3.46875 4.988281 2.644531 6.679688 2.644531 8.46875 C 2.644531 10.328125 3.519531 11.980469 4.875 13.046875 L 5.824219 13.046875 C 7.457031 13.996094 9.476562 13.996094 11.109375 13.046875 L 12.058594 13.046875 C 13.464844 11.945312 14.289062 10.253906 14.285156 8.46875 C 14.285156 6.605469 13.414062 4.953125 12.058594 3.886719 L 11.109375 3.886719 C 10.304688 3.421875 9.394531 3.175781 8.46875 3.175781 Z M 8.46875 3.175781 "/>
</g>
<mask id="mask-1">
<g filter="url(#filter-remove-color)">
<rect x="-6.4" y="-6.4" width="76.8" height="76.8" fill="rgb(0%, 0%, 0%)" fill-opacity="0.35"/>
</g>
</mask>
<clipPath id="clip-1">
<rect x="0" y="0" width="17" height="17"/>
</clipPath>
<g id="source-14904" clip-path="url(#clip-1)">
<path fill-rule="nonzero" fill="rgb(100%, 100%, 100%)" fill-opacity="0.987" d="M 6.085938 5.820312 L 10.847656 5.820312 C 11.285156 5.820312 11.640625 6.175781 11.640625 6.613281 L 11.640625 10.316406 C 11.640625 10.757812 11.285156 11.113281 10.847656 11.113281 L 6.085938 11.113281 C 5.875 11.113281 5.671875 11.027344 5.523438 10.878906 C 5.375 10.730469 5.292969 10.527344 5.292969 10.316406 L 5.292969 6.613281 C 5.292969 6.175781 5.648438 5.820312 6.085938 5.820312 M 6.085938 5.820312 "/>
</g>
<mask id="mask-2">
<g filter="url(#filter-remove-color)">
<rect x="-6.4" y="-6.4" width="76.8" height="76.8" fill="rgb(0%, 0%, 0%)" fill-opacity="0.1"/>
</g>
</mask>
<clipPath id="clip-2">
<rect x="0" y="0" width="17" height="17"/>
</clipPath>
<g id="source-14908" clip-path="url(#clip-2)">
<path fill-rule="nonzero" fill="rgb(0%, 0%, 0%)" fill-opacity="1" d="M 7.671875 8.863281 C 7.671875 9.082031 7.496094 9.261719 7.277344 9.261719 C 7.058594 9.261719 6.878906 9.082031 6.878906 8.863281 C 6.878906 8.644531 7.058594 8.46875 7.277344 8.46875 C 7.496094 8.46875 7.671875 8.644531 7.671875 8.863281 M 8.730469 8.863281 C 8.730469 9.082031 8.554688 9.261719 8.335938 9.261719 C 8.113281 9.261719 7.9375 9.082031 7.9375 8.863281 C 7.9375 8.644531 8.113281 8.46875 8.335938 8.46875 C 8.554688 8.46875 8.730469 8.644531 8.730469 8.863281 M 9.789062 8.863281 C 9.789062 9.082031 9.613281 9.261719 9.394531 9.261719 C 9.171875 9.261719 8.996094 9.082031 8.996094 8.863281 C 8.996094 8.644531 9.171875 8.46875 9.394531 8.46875 C 9.613281 8.46875 9.789062 8.644531 9.789062 8.863281 M 9.789062 8.863281 "/>
</g>
<mask id="mask-3">
<g filter="url(#filter-remove-color)">
<rect x="-6.4" y="-6.4" width="76.8" height="76.8" fill="rgb(0%, 0%, 0%)" fill-opacity="0.25"/>
</g>
</mask>
<linearGradient id="linear-pattern-0" gradientUnits="userSpaceOnUse" x1="34.539001" y1="36.888" x2="43.998001" y2="36.888" gradientTransform="matrix(0.26458, 0, 0, 0.26458, 0, 0)">
<stop offset="0" stop-color="rgb(0%, 0%, 0%)" stop-opacity="1"/>
<stop offset="1" stop-color="rgb(0%, 0%, 0%)" stop-opacity="0"/>
</linearGradient>
<clipPath id="clip-3">
<rect x="0" y="0" width="17" height="17"/>
</clipPath>
<g id="source-14915" clip-path="url(#clip-3)">
<path fill-rule="nonzero" fill="url(#linear-pattern-0)" d="M 11.640625 8.40625 C 11.21875 9.617188 10.3125 10.59375 9.136719 11.113281 L 10.847656 11.113281 C 11.285156 11.113281 11.640625 10.757812 11.640625 10.316406 Z M 11.640625 8.40625 "/>
</g>
</defs>
<path fill-rule="nonzero" fill="rgb(17.647059%, 58.823529%, 93.333333%)" fill-opacity="1" d="M 8.378906 1.324219 C 10.953125 1.289062 13.347656 2.644531 14.644531 4.867188 C 15.941406 7.089844 15.941406 9.839844 14.644531 12.066406 C 13.347656 14.289062 10.953125 15.644531 8.378906 15.609375 C 4.472656 15.558594 1.328125 12.375 1.328125 8.464844 C 1.328125 4.558594 4.472656 1.375 8.378906 1.324219 Z M 8.378906 1.324219 "/>
<g mask="url(#mask-0)">
<use xlink:href="#source-14900"/>
</g>
<g mask="url(#mask-1)">
<use xlink:href="#source-14904"/>
</g>
<g mask="url(#mask-2)">
<use xlink:href="#source-14908"/>
</g>
<path fill-rule="nonzero" fill="rgb(97.647059%, 97.647059%, 97.647059%)" fill-opacity="1" d="M 6.613281 7.9375 L 10.320312 7.9375 C 10.464844 7.9375 10.582031 8.054688 10.582031 8.203125 L 10.582031 8.996094 C 10.582031 9.140625 10.464844 9.257812 10.320312 9.261719 L 6.613281 9.261719 C 6.46875 9.261719 6.351562 9.140625 6.351562 8.996094 L 6.351562 8.203125 C 6.351562 8.054688 6.46875 7.9375 6.613281 7.9375 M 6.613281 7.9375 "/>
<path fill-rule="nonzero" fill="rgb(17.647059%, 17.647059%, 17.647059%)" fill-opacity="1" d="M 7.40625 8.597656 C 7.40625 8.816406 7.230469 8.996094 7.011719 8.996094 C 6.792969 8.996094 6.613281 8.816406 6.613281 8.597656 C 6.613281 8.378906 6.792969 8.203125 7.011719 8.203125 C 7.230469 8.203125 7.40625 8.378906 7.40625 8.597656 M 8.46875 8.597656 C 8.46875 8.816406 8.289062 8.996094 8.070312 8.996094 C 7.851562 8.996094 7.671875 8.816406 7.671875 8.597656 C 7.671875 8.378906 7.851562 8.203125 8.070312 8.203125 C 8.289062 8.203125 8.46875 8.378906 8.46875 8.597656 M 9.523438 8.597656 C 9.523438 8.816406 9.347656 8.996094 9.128906 8.996094 C 8.910156 8.996094 8.730469 8.816406 8.730469 8.597656 C 8.730469 8.378906 8.910156 8.203125 9.128906 8.203125 C 9.347656 8.203125 9.523438 8.378906 9.523438 8.597656 M 9.523438 8.597656 "/>
<path fill-rule="nonzero" fill="rgb(97.647059%, 97.647059%, 97.647059%)" fill-opacity="1" d="M 6.414062 7.144531 L 8.402344 7.144531 C 8.4375 7.144531 8.46875 7.171875 8.46875 7.207031 L 8.46875 7.34375 C 8.46875 7.378906 8.4375 7.40625 8.402344 7.40625 L 6.414062 7.40625 C 6.378906 7.40625 6.351562 7.378906 6.351562 7.34375 L 6.351562 7.207031 C 6.351562 7.171875 6.378906 7.144531 6.414062 7.144531 M 6.414062 7.144531 "/>
<g mask="url(#mask-3)">
<use xlink:href="#source-14915"/>
</g>
</svg>

<svg width="64" height="64" version="1.1" viewBox="0 0 16.933 16.933" xmlns="http://www.w3.org/2000/svg" xmlns:xlink="http://www.w3.org/1999/xlink">
 <defs>
  <linearGradient id="b" x1="34.539" x2="43.998" y1="36.888" y2="36.888" gradientUnits="userSpaceOnUse">
   <stop offset="0"/>
   <stop stop-opacity="0" offset="1"/>
  </linearGradient>
 </defs>
 <path d="m8.3803 1.3234a7.1436 7.1436 0 1 1 0 14.286 7.1436 7.1436 0 0 1 0-14.286z" fill="#2d96ee"/>
 <path d="M8.467 3.175a5.26 5.26 0 0 0-2.643.712h-.947a5.809 5.809 0 0 0-2.231 4.58c0 1.86.873 3.514 2.23 4.58h.948a5.26 5.26 0 0 0 5.285 0h.948a5.809 5.809 0 0 0 2.23-4.58c0-1.86-.873-3.515-2.23-4.58h-.948a5.26 5.26 0 0 0-2.642-.712z" opacity=".15"/>
 <path d="M6.086 5.821h4.761c.439 0 .794.356.794.794v3.703c0 .44-.355.794-.794.794H6.086a.793.793 0 0 1-.794-.794V6.615c0-.438.356-.794.794-.794m0 0" fill="#fff" fill-opacity=".987" opacity=".35"/>
 <g opacity=".1">
  <path d="M7.673 8.864a.397.397 0 1 1-.794 0 .397.397 0 0 1 .794 0m0 0M8.731 8.864a.397.397 0 1 1-.794 0 .397.397 0 0 1 .794 0m0 0M9.79 8.864a.397.397 0 1 1-.794 0 .397.397 0 0 1 .794 0m0 0"/>
 </g>
 <path d="M6.615 7.938h3.704c.146 0 .264.118.264.264v.794a.265.265 0 0 1-.264.264H6.615a.265.265 0 0 1-.265-.264v-.794c0-.146.119-.264.265-.264m0 0" fill="#f9f9f9"/>
 <path d="M7.408 8.599a.397.397 0 1 1-.794 0 .397.397 0 0 1 .794 0m0 0M8.467 8.599a.397.397 0 1 1-.794 0 .397.397 0 0 1 .794 0m0 0M9.525 8.599a.397.397 0 1 1-.794 0 .397.397 0 0 1 .794 0m0 0" fill="#2d2d2d"/>
 <path d="M6.414 7.144h1.99c.035 0 .064.028.064.063v.137a.064.064 0 0 1-.064.064h-1.99a.064.064 0 0 1-.064-.064v-.137c0-.035.029-.063.064-.063m0 0" fill="#f9f9f9"/>
 <path transform="scale(.26458)" d="m43.998 31.777a17.5 17.5 0 0 1-9.459 10.221h6.459c1.656 0 3-1.34 3-3v-7.22z" fill="url(#b)" opacity=".25"/>
</svg>
